svgs/sharp-regular/up.svg

<svg xmlns="http://www.w3.org/2000/svg" viewBox="0 0 384 512"><!--! Font Awesome Pro 6.4.2 by @fontawesome - https://fontawesome.com License - https://fontawesome.com/license (Commercial License) Copyright 2023 Fonticons, Inc. --><path d="M160 240v48V432h64V288 240h48 60.1L192 99.9 51.9 240H112h48zM48 288H0V240 224L158.1 65.9 192 32l33.9 33.9L384 224v16 48H336 320 272v48 96 48H224 160 112V432 336 288H64 48z"/></svg>

<svg xmlns="http://www.w3.org/2000/svg" viewBox="0 0 384 512"><!--! Font Awesome Pro 6.6.0 by @fontawesome - https://fontawesome.com License - https://fontawesome.com/license (Commercial License) Copyright 2024 Fonticons, Inc. --><path d="M160 240l0 48 0 144 64 0 0-144 0-48 48 0 60.1 0L192 99.9 51.9 240l60.1 0 48 0zM48 288L0 288l0-48 0-16L158.1 65.9 192 32l33.9 33.9L384 224l0 16 0 48-48 0-16 0-48 0 0 48 0 96 0 48-48 0-64 0-48 0 0-48 0-96 0-48-48 0-16 0z"/></svg>
